X:2269
T:Buddy Fraser's Reel
R:reel
C:Jerry Holland, SOCAN
S:Tune of the Month, Sept. 2001
A:www.jerryholland.com
Q:333
L:1/8
M:C|
K:A
f|eAcA BAFA|EA,CA, CEEf|eAcA B2 AB|ceec BAdf|!
eAcA BAFA|EA,CA, CEEf|edcA BFFf|ecdB cAA||!
|:f|efec e2 ef|eAcA BFFf|efec efaf|ecdB cAAf|!
efec e2 ef|eAcA BFFA|EA,CA, CEEf|ecdB cAA|]!


